public/skills/drag.svg

<svg width="554" height="535" viewBox="0 0 554 535" fill="none" xmlns="http://www.w3.org/2000/svg">
<path d="M234.605 17.7785C258.097 -4.0811 295.381 -4.0811 318.874 17.7785L329.613 27.7706C343.047 40.2708 361.727 46.1087 380.234 43.5908L395.028 41.5781C427.393 37.1751 457.556 58.2535 463.204 89.22L465.785 103.375C469.015 121.083 480.56 136.367 497.071 144.793L510.27 151.528C539.144 166.264 550.665 200.369 536.31 228.614L529.749 241.526C521.54 257.677 521.54 276.569 529.749 292.721L536.31 305.632C550.665 333.877 539.144 367.983 510.27 382.718L497.071 389.454C480.56 397.88 469.015 413.163 465.785 430.871L463.204 445.026C457.556 475.993 427.393 497.071 395.028 492.668L380.234 490.655C361.727 488.138 343.047 493.975 329.613 506.476L318.874 516.468C295.381 538.327 258.097 538.327 234.605 516.468L223.866 506.476C210.432 493.975 191.752 488.138 173.244 490.655L158.45 492.668C126.086 497.071 95.9224 475.993 90.2749 445.026L87.6934 430.871C84.4639 413.163 72.9191 397.88 56.4075 389.454L43.2089 382.718C14.3346 367.983 2.81328 333.877 17.1682 305.632L23.73 292.721C31.9388 276.569 31.9388 257.677 23.73 241.526L17.1682 228.614C2.81328 200.369 14.3346 166.264 43.2089 151.528L56.4075 144.793C72.9191 136.367 84.4639 121.083 87.6934 103.375L90.2749 89.22C95.9224 58.2535 126.086 37.1751 158.45 41.5781L173.244 43.5908C191.752 46.1087 210.432 40.2708 223.866 27.7706L234.605 17.7785Z" fill="white"/>
<path d="M187.668 111.705L182.964 114.661L173.387 99.4155L178.3 96.3291C179.779 95.4001 181.236 94.9103 182.671 94.8598C184.104 94.8043 185.457 95.1687 186.732 95.9529C188.004 96.7321 189.135 97.9107 190.127 99.4889C191.124 101.077 191.7 102.622 191.855 104.124C192.006 105.62 191.734 107.016 191.039 108.311C190.34 109.601 189.217 110.733 187.668 111.705ZM183.781 111.863L186.521 110.143C187.781 109.351 188.673 108.451 189.196 107.444C189.719 106.437 189.902 105.357 189.745 104.203C189.588 103.049 189.119 101.852 188.34 100.611C187.567 99.3804 186.7 98.4472 185.74 97.8114C184.777 97.1706 183.746 96.863 182.648 96.8885C181.547 96.9091 180.401 97.2934 179.209 98.0416L176.262 99.8935L183.781 111.863Z" fill="#1C222F"/>
<path d="M234.667 93.1452L230.27 75.6865L236.169 74.2007C237.533 73.8572 238.711 73.8082 239.703 74.0538C240.695 74.2937 241.502 74.7641 242.126 75.4652C242.75 76.1663 243.191 77.0312 243.45 78.0598C243.709 79.0885 243.729 80.0536 243.509 80.9552C243.289 81.8567 242.801 82.6444 242.046 83.318C241.289 83.986 240.235 84.4903 238.882 84.831L234.109 86.0334L233.628 84.1239L238.333 82.9386C239.265 82.7039 239.981 82.3785 240.481 81.9626C240.986 81.5452 241.304 81.0543 241.433 80.4898C241.567 79.9181 241.546 79.2828 241.37 78.5837C241.194 77.8847 240.91 77.3067 240.516 76.8497C240.123 76.3927 239.604 76.0944 238.958 75.9548C238.311 75.8095 237.516 75.8557 236.573 76.0933L232.856 77.0295L236.781 92.6127L234.667 93.1452ZM240.909 83.2326L247.181 89.9932L244.726 90.6116L238.522 83.8338L240.909 83.2326Z" fill="#1C222F"/>
<path d="M291.236 88.7078L288.955 88.5539L296.764 71.0362L299.009 71.1878L304.392 89.5962L302.112 89.4422L297.765 73.9585L297.624 73.9491L291.236 88.7078ZM292.551 81.7479L301.743 82.3686L301.613 84.2982L292.421 83.6775L292.551 81.7479Z" fill="#1C222F"/>
<path d="M361.001 94.7359C361.042 94.1146 361.003 93.5274 360.884 92.9744C360.773 92.4182 360.578 91.9043 360.3 91.4328C360.027 90.9634 359.671 90.5457 359.23 90.1795C358.79 89.8134 358.268 89.5092 357.664 89.2669C356.674 88.8697 355.671 88.7642 354.656 88.9503C353.64 89.1364 352.693 89.6311 351.815 90.4344C350.937 91.2377 350.208 92.3628 349.627 93.8096C349.047 95.2564 348.799 96.5746 348.884 97.7642C348.968 98.9538 349.322 99.9701 349.943 100.813C350.565 101.656 351.392 102.285 352.426 102.7C353.383 103.084 354.308 103.218 355.2 103.103C356.101 102.984 356.905 102.631 357.614 102.044C358.331 101.454 358.895 100.647 359.305 99.6249L359.873 100.004L354.847 97.9877L355.567 96.1928L361.931 98.7462L361.211 100.541C360.658 101.917 359.885 102.996 358.889 103.777C357.899 104.561 356.778 105.027 355.525 105.174C354.28 105.319 352.993 105.125 351.666 104.592C350.187 103.999 349.027 103.129 348.185 101.983C347.35 100.84 346.877 99.5006 346.766 97.966C346.661 96.4335 346.962 94.7862 347.669 93.0239C348.2 91.7022 348.853 90.5847 349.63 89.6713C350.415 88.7547 351.283 88.0548 352.235 87.5715C353.186 87.0883 354.188 86.827 355.239 86.7879C356.291 86.7488 357.352 86.9442 358.423 87.3741C359.305 87.7277 360.072 88.1905 360.727 88.7625C361.389 89.3313 361.922 89.9778 362.326 90.702C362.738 91.4229 363.011 92.1986 363.145 93.0291C363.281 93.8541 363.263 94.7025 363.09 95.574L361.001 94.7359Z" fill="#1C222F"/>
<path d="M440.526 175.038L438.888 176.066L434.698 169.396L436.336 168.368L440.526 175.038Z" fill="#1C222F"/>
<path d="M460.959 230.158L459.084 230.631L457.16 222.992L459.035 222.52L460.959 230.158Z" fill="#1C222F"/>
<path d="M463.372 288.893L461.442 288.763L461.973 280.904L463.902 281.034L463.372 288.893Z" fill="#1C222F"/>
<path d="M447.516 345.499L445.721 344.778L448.654 337.468L450.449 338.188L447.516 345.499Z" fill="#1C222F"/>
<path d="M365.816 422.537L370.521 419.582L380.098 434.827L375.185 437.914C373.706 438.843 372.249 439.332 370.813 439.383C369.381 439.438 368.027 439.074 366.752 438.29C365.481 437.511 364.349 436.332 363.358 434.754C362.36 433.166 361.784 431.621 361.63 430.119C361.478 428.622 361.75 427.226 362.446 425.931C363.144 424.641 364.268 423.51 365.816 422.537ZM369.703 422.379L366.964 424.1C365.703 424.892 364.811 425.791 364.288 426.798C363.765 427.805 363.582 428.886 363.739 430.04C363.897 431.194 364.365 432.391 365.144 433.631C365.918 434.862 366.784 435.796 367.744 436.431C368.707 437.072 369.738 437.38 370.836 437.354C371.938 437.334 373.084 436.949 374.275 436.201L377.223 434.349L369.703 422.379Z" fill="#1C222F"/>
<path d="M318.802 441.099L323.199 458.558L317.3 460.043C315.936 460.387 314.758 460.436 313.765 460.19C312.774 459.95 311.967 459.48 311.343 458.779C310.719 458.078 310.278 457.213 310.018 456.184C309.759 455.156 309.74 454.191 309.96 453.289C310.18 452.387 310.668 451.6 311.423 450.926C312.179 450.258 313.234 449.754 314.586 449.413L319.36 448.211L319.841 450.12L315.136 451.306C314.203 451.54 313.488 451.866 312.988 452.282C312.483 452.699 312.165 453.19 312.035 453.754C311.901 454.326 311.922 454.961 312.099 455.66C312.275 456.359 312.559 456.937 312.952 457.394C313.345 457.851 313.865 458.15 314.51 458.289C315.157 458.435 315.953 458.388 316.896 458.151L320.613 457.215L316.688 441.631L318.802 441.099ZM312.559 451.012L306.288 444.251L308.743 443.633L314.946 450.41L312.559 451.012Z" fill="#1C222F"/>
<path d="M262.249 445.535L264.529 445.689L256.721 463.207L254.475 463.055L249.092 444.647L251.373 444.801L255.72 460.285L255.86 460.294L262.249 445.535ZM260.933 452.495L251.741 451.875L251.871 449.945L261.063 450.566L260.933 452.495Z" fill="#1C222F"/>
<path d="M192.487 439.505C192.446 440.127 192.485 440.714 192.604 441.267C192.716 441.823 192.91 442.337 193.189 442.808C193.461 443.278 193.818 443.696 194.258 444.062C194.698 444.428 195.221 444.732 195.824 444.974C196.814 445.371 197.817 445.477 198.833 445.291C199.848 445.105 200.795 444.61 201.673 443.807C202.551 443.004 203.28 441.878 203.861 440.432C204.441 438.985 204.689 437.667 204.605 436.477C204.52 435.287 204.167 434.271 203.545 433.428C202.923 432.585 202.096 431.956 201.063 431.542C200.105 431.157 199.18 431.023 198.288 431.139C197.388 431.257 196.583 431.61 195.874 432.197C195.157 432.787 194.594 433.594 194.183 434.616L193.616 434.237L198.641 436.254L197.921 438.048L191.557 435.495L192.278 433.7C192.83 432.324 193.604 431.245 194.599 430.464C195.589 429.68 196.711 429.215 197.964 429.067C199.209 428.922 200.495 429.116 201.822 429.649C203.301 430.242 204.462 431.112 205.303 432.258C206.139 433.402 206.612 434.741 206.722 436.275C206.827 437.808 206.526 439.455 205.819 441.217C205.289 442.539 204.635 443.657 203.858 444.57C203.073 445.486 202.205 446.186 201.254 446.67C200.302 447.153 199.3 447.414 198.249 447.453C197.198 447.492 196.136 447.297 195.065 446.867C194.184 446.514 193.416 446.051 192.761 445.479C192.099 444.91 191.566 444.263 191.162 443.539C190.75 442.818 190.477 442.043 190.343 441.212C190.207 440.387 190.225 439.539 190.398 438.667L192.487 439.505Z" fill="#1C222F"/>
<path d="M112.951 359.205L114.588 358.176L118.778 364.846L117.141 365.875L112.951 359.205Z" fill="#1C222F"/>
<path d="M92.5254 304.086L94.4008 303.614L96.3247 311.252L94.4492 311.725L92.5254 304.086Z" fill="#1C222F"/>
<path d="M90.1205 245.35L92.0501 245.48L91.5195 253.339L89.5898 253.208L90.1205 245.35Z" fill="#1C222F"/>
<path d="M105.976 188.745L107.771 189.465L104.838 196.775L103.043 196.055L105.976 188.745Z" fill="#1C222F"/>
<path d="M369.063 257.722C368.829 256.768 368.46 255.93 367.955 255.21C367.451 254.471 366.821 253.85 366.064 253.346C365.326 252.823 364.461 252.436 363.471 252.184C362.498 251.914 361.427 251.779 360.256 251.779C357.735 251.779 355.583 252.382 353.8 253.589C352.035 254.796 350.684 256.533 349.748 258.803C348.829 261.072 348.37 263.809 348.37 267.015C348.37 270.257 348.811 273.03 349.694 275.335C350.576 277.64 351.891 279.405 353.638 280.63C355.385 281.855 357.555 282.467 360.148 282.467C362.435 282.467 364.335 282.134 365.848 281.468C367.379 280.801 368.523 279.856 369.279 278.631C370.035 277.406 370.414 275.966 370.414 274.309L373.007 274.579H360.364V263.881H384.893V271.553C384.893 276.596 383.822 280.909 381.679 284.493C379.553 288.059 376.618 290.796 372.872 292.705C369.144 294.596 364.867 295.542 360.04 295.542C354.655 295.542 349.928 294.398 345.858 292.111C341.788 289.824 338.609 286.564 336.322 282.332C334.053 278.1 332.918 273.066 332.918 267.231C332.918 262.657 333.611 258.605 334.998 255.075C336.403 251.545 338.348 248.564 340.833 246.133C343.318 243.684 346.191 241.838 349.451 240.595C352.71 239.334 356.204 238.704 359.932 238.704C363.21 238.704 366.253 239.172 369.063 240.109C371.89 241.027 374.385 242.342 376.546 244.053C378.725 245.746 380.481 247.754 381.814 250.077C383.146 252.4 383.957 254.949 384.245 257.722H369.063Z" fill="#1C222F"/>
<path d="M289.56 294.786H273.352L291.613 239.461H312.144L330.405 294.786H314.197L302.095 254.697H301.662L289.56 294.786ZM286.534 272.958H317.006V284.196H286.534V272.958Z" fill="#1C222F"/>
<path d="M224.375 294.786V239.461H248.256C252.362 239.461 255.955 240.208 259.034 241.703C262.114 243.198 264.509 245.35 266.22 248.159C267.931 250.969 268.786 254.337 268.786 258.263C268.786 262.225 267.904 265.566 266.139 268.285C264.392 271.004 261.934 273.058 258.764 274.444C255.612 275.831 251.929 276.524 247.715 276.524H233.452V264.854H244.69C246.455 264.854 247.958 264.638 249.201 264.206C250.462 263.756 251.425 263.044 252.092 262.072C252.776 261.099 253.118 259.83 253.118 258.263C253.118 256.678 252.776 255.39 252.092 254.4C251.425 253.391 250.462 252.653 249.201 252.185C247.958 251.698 246.455 251.455 244.69 251.455H239.395V294.786H224.375ZM256.792 269.393L270.623 294.786H254.307L240.8 269.393H256.792Z" fill="#1C222F"/>
<path d="M189.873 294.786H168.586V239.461H189.657C195.348 239.461 200.265 240.569 204.407 242.784C208.567 244.981 211.773 248.15 214.024 252.293C216.293 256.417 217.428 261.36 217.428 267.123C217.428 272.886 216.302 277.839 214.051 281.981C211.8 286.105 208.612 289.275 204.488 291.49C200.364 293.687 195.492 294.786 189.873 294.786ZM183.606 282.035H189.333C192.07 282.035 194.402 281.594 196.329 280.712C198.274 279.829 199.751 278.307 200.76 276.146C201.786 273.985 202.3 270.977 202.3 267.123C202.3 263.269 201.777 260.262 200.733 258.101C199.706 255.94 198.193 254.418 196.194 253.535C194.213 252.653 191.782 252.212 188.901 252.212H183.606V282.035Z" fill="#1C222F"/>
</svg>

<svg width="554" height="535" viewBox="0 0 554 535" fill="none" xmlns="http://www.w3.org/2000/svg"><path d="M234.605 17.779c23.492-21.86 60.776-21.86 84.269 0l10.739 9.992c13.434 12.5 32.114 18.338 50.621 15.82l14.794-2.013c32.365-4.403 62.528 16.676 68.176 47.642l2.581 14.155c3.23 17.708 14.775 32.992 31.286 41.418l13.199 6.735c28.874 14.736 40.395 48.841 26.04 77.086l-6.561 12.912c-8.209 16.151-8.209 35.043 0 51.195l6.561 12.911c14.355 28.245 2.834 62.351-26.04 77.086l-13.199 6.736c-16.511 8.426-28.056 23.709-31.286 41.417l-2.581 14.155c-5.648 30.967-35.811 52.045-68.176 47.642l-14.794-2.013c-18.507-2.517-37.187 3.32-50.621 15.821l-10.739 9.992c-23.493 21.859-60.777 21.859-84.269 0l-10.739-9.992c-13.434-12.501-32.114-18.338-50.622-15.821l-14.794 2.013c-32.364 4.403-62.528-16.675-68.175-47.642l-2.582-14.155c-3.23-17.708-14.774-32.991-31.285-41.417l-13.2-6.736c-28.873-14.735-40.395-48.841-26.04-77.086l6.562-12.911c8.209-16.152 8.209-35.044 0-51.195l-6.562-12.912c-14.355-28.245-2.833-62.35 26.04-77.086l13.2-6.735c16.511-8.426 28.056-23.71 31.285-41.418l2.582-14.155c5.647-30.966 35.811-52.045 68.175-47.642l14.794 2.013c18.508 2.518 37.188-3.32 50.622-15.82z" fill="#fff"/><path d="m187.668 111.705-4.704 2.956-9.577-15.246 4.913-3.086q2.219-1.394 4.371-1.47 2.149-.082 4.061 1.094 1.907 1.17 3.395 3.536 1.495 2.382 1.728 4.635.227 2.244-.816 4.187-1.048 1.936-3.371 3.394m-3.887.158 2.74-1.72q1.89-1.188 2.675-2.699t.549-3.241-1.405-3.592q-1.16-1.846-2.6-2.8-1.445-.96-3.092-.923-1.651.031-3.439 1.154l-2.947 1.852zM234.667 93.145l-4.397-17.458 5.899-1.486q2.046-.516 3.534-.147 1.488.36 2.423 1.411.936 1.051 1.324 2.595.389 1.543.059 2.895t-1.463 2.363q-1.135 1.002-3.164 1.513l-4.773 1.202-.481-1.91 4.705-1.184q1.398-.352 2.148-.976.758-.627.952-1.473.201-.858-.063-1.906-.263-1.05-.854-1.734-.59-.686-1.558-.895-.97-.218-2.385.138l-3.717.936 3.925 15.584zm6.242-9.912 6.272 6.76-2.455.619-6.204-6.778zM291.236 88.708l-2.281-.154 7.809-17.518 2.245.152 5.383 18.408-2.28-.154-4.347-15.483-.141-.01zm1.315-6.96 9.192.62-.13 1.93-9.192-.62zM361.001 94.736a6.4 6.4 0 0 0-.117-1.762 4.9 4.9 0 0 0-.584-1.541 4.7 4.7 0 0 0-1.07-1.254 5.8 5.8 0 0 0-1.566-.912 5.34 5.34 0 0 0-3.008-.317q-1.524.28-2.841 1.484-1.317 1.206-2.188 3.376-.87 2.17-.743 3.954t1.059 3.049q.933 1.265 2.483 1.887 1.436.576 2.774.403a4.68 4.68 0 0 0 2.414-1.059q1.076-.885 1.691-2.42l.568.38-5.026-2.016.72-1.795 6.364 2.553-.72 1.795q-.829 2.064-2.322 3.236a6.55 6.55 0 0 1-3.364 1.397q-1.868.217-3.859-.582-2.218-.89-3.481-2.609-1.252-1.715-1.419-4.017-.158-2.299.903-4.942.796-1.983 1.961-3.353 1.177-1.374 2.605-2.1a7.15 7.15 0 0 1 3.004-.783q1.578-.06 3.184.586a8 8 0 0 1 2.304 1.389 7.1 7.1 0 0 1 1.599 1.939 6.9 6.9 0 0 1 .819 2.327 7.1 7.1 0 0 1-.055 2.545zM440.526 175.038l-1.638 1.028-4.19-6.67 1.638-1.028zM460.959 230.158l-1.875.473-1.924-7.639 1.875-.472zM463.372 288.893l-1.93-.13.531-7.859 1.929.13zM447.516 345.499l-1.795-.721 2.933-7.31 1.795.72zM365.816 422.537l4.705-2.955 9.577 15.245-4.913 3.087q-2.218 1.393-4.372 1.469-2.148.083-4.061-1.093-1.907-1.169-3.394-3.536-1.497-2.382-1.728-4.635-.228-2.245.816-4.188 1.048-1.935 3.37-3.394m3.887-.158-2.739 1.721q-1.892 1.188-2.676 2.698t-.549 3.242q.237 1.731 1.405 3.591 1.16 1.847 2.6 2.8 1.445.962 3.092.923 1.653-.03 3.439-1.153l2.948-1.852zM318.802 441.099l4.397 17.459-5.899 1.485q-2.046.516-3.535.147-1.486-.36-2.422-1.411t-1.325-2.595q-.388-1.542-.058-2.895t1.463-2.363q1.135-1.002 3.163-1.513l4.774-1.202.481 1.909-4.705 1.186q-1.399.351-2.148.976-.758.626-.953 1.472-.201.858.064 1.906.264 1.049.853 1.734.59.686 1.558.895.971.218 2.386-.138l3.717-.936-3.925-15.584zm-6.243 9.913-6.271-6.761 2.455-.618 6.203 6.777zM262.249 445.535l2.28.154-7.808 17.518-2.246-.152-5.383-18.408 2.281.154 4.347 15.484.14.009zm-1.316 6.96-9.192-.62.13-1.93 9.192.621zM192.487 439.505a6.4 6.4 0 0 0 .117 1.762q.167.834.585 1.541.408.705 1.069 1.254.66.549 1.566.912 1.485.596 3.009.317 1.523-.28 2.84-1.484 1.317-1.205 2.188-3.375.87-2.17.744-3.955-.127-1.785-1.06-3.049t-2.482-1.886q-1.437-.577-2.775-.403a4.67 4.67 0 0 0-2.414 1.058q-1.075.885-1.691 2.419l-.567-.379 5.025 2.017-.72 1.794-6.364-2.553.721-1.795q.828-2.064 2.321-3.236a6.56 6.56 0 0 1 3.365-1.397q1.868-.217 3.858.582 2.219.89 3.481 2.609 1.254 1.716 1.419 4.017.157 2.3-.903 4.942-.795 1.983-1.961 3.353-1.178 1.374-2.604 2.1a7.16 7.16 0 0 1-3.005.783q-1.577.059-3.184-.586a8 8 0 0 1-2.304-1.388 7.1 7.1 0 0 1-1.599-1.94 6.9 6.9 0 0 1-.819-2.327 7.1 7.1 0 0 1 .055-2.545zM112.951 359.205l1.637-1.029 4.19 6.67-1.637 1.029zM92.525 304.086l1.876-.472 1.924 7.638-1.876.473zM90.12 245.35l1.93.13-.53 7.859-1.93-.131zM105.976 188.745l1.795.72-2.933 7.31-1.795-.72zM369.063 257.722q-.35-1.432-1.108-2.512a6.9 6.9 0 0 0-1.891-1.864q-1.108-.784-2.593-1.162-1.459-.405-3.215-.405-3.782 0-6.456 1.81-2.648 1.81-4.052 5.214-1.378 3.403-1.378 8.212 0 4.863 1.324 8.32 1.323 3.458 3.944 5.295t6.51 1.837q3.43 0 5.7-.999 2.297-1 3.431-2.837 1.135-1.837 1.135-4.322l2.593.27h-12.643v-10.698h24.529v7.672q0 7.564-3.214 12.94-3.188 5.349-8.807 8.212-5.592 2.837-12.832 2.837-8.077 0-14.182-3.431t-9.536-9.779q-3.404-6.348-3.404-15.101 0-6.861 2.08-12.156 2.108-5.295 5.835-8.942a24.7 24.7 0 0 1 8.618-5.538q4.889-1.891 10.481-1.891 4.917 0 9.131 1.405 4.241 1.377 7.483 3.944 3.268 2.54 5.268 6.024 1.998 3.485 2.431 7.645zM289.56 294.786h-16.208l18.261-55.325h20.531l18.261 55.325h-16.208l-12.102-40.089h-.433zm-3.026-21.828h30.472v11.238h-30.472zM224.375 294.786v-55.325h23.881q6.16 0 10.778 2.242 4.62 2.243 7.186 6.456 2.566 4.215 2.566 10.104 0 5.943-2.647 10.022-2.62 4.08-7.375 6.159-4.728 2.08-11.049 2.08h-14.263v-11.67h11.238q2.647 0 4.511-.648 1.891-.675 2.891-2.134 1.026-1.459 1.026-3.809 0-2.378-1.026-3.863-1-1.513-2.891-2.215-1.864-.73-4.511-.73h-5.295v43.331zm32.417-25.393 13.831 25.393h-16.316L240.8 269.393zM189.873 294.786h-21.287v-55.325h21.071q8.537 0 14.75 3.323 6.24 3.295 9.617 9.509 3.404 6.186 3.404 14.83t-3.377 14.858q-3.377 6.186-9.563 9.509-6.186 3.296-14.615 3.296m-6.267-12.751h5.727q4.105 0 6.996-1.323 2.918-1.324 4.431-4.566 1.54-3.242 1.54-9.023t-1.567-9.022q-1.54-3.242-4.539-4.566-2.971-1.323-7.293-1.323h-5.295z" fill="#1C222F"/></svg>
